picto/hand-towels.svg

<svg class="color-immutable" width="24" height="24" viewBox="0 0 24 24" fill="none" xmlns="http://www.w3.org/2000/svg"><path d="M0 22.5V1.5C0 0.675 0.675 0 1.5 0H22.5C23.325 0 24 0.675 24 1.5V22.5C24 23.325 23.325 24 22.5 24H1.5C0.675 24 0 23.325 0 22.5Z" fill="#2D327D"/><path d="M11.369 12.551C11.354 12.551 11.34 12.551 11.324 12.552C11.269 12.553 11.214 12.563 11.164 12.583C10.767 12.729 10.504 13.106 10.504 13.528V13.546V15.718C10.504 15.985 10.287 16.203 10.021 16.203H8.75903C8.56203 16.203 8.37303 16.124 8.23403 15.984L4.18003 11.931C3.91203 11.66 3.47503 11.66 3.20603 11.93C2.93703 12.199 2.93703 12.636 3.20603 12.905L7.51603 17.215L7.28003 17.451L3.42803 13.599L3.16403 13.861C3.05403 13.973 2.99103 14.125 2.99103 14.282C2.99103 14.44 3.05403 14.592 3.16403 14.703L6.61103 18.149L6.37303 18.385L3.42803 15.44L3.16403 15.702C3.05403 15.815 2.99103 15.965 2.99103 16.123C2.99103 16.282 3.05403 16.433 3.16403 16.544L5.68903 19.068L5.45303 19.305L3.42803 17.281L3.16403 17.543C3.05403 17.655 2.99103 17.807 2.99103 17.964C2.99103 18.122 3.05403 18.274 3.16403 18.385L5.78103 21H11.991V13.174C11.991 12.829 11.711 12.551 11.369 12.551Z" fill="white"/><path d="M18.225 4.125H5.77502V7.425H18.225V4.125Z" fill="white"/><path d="M3 3V5.25H5.4V4.875H3.375V3.375H20.625V4.875H18.6V5.25H21V3H3Z" fill="white"/><path d="M5.77502 11.1H16.237V9.11299H18.225V7.79999H5.77502V11.1Z" fill="white"/><path d="M16.612 11.1H16.613L18.225 9.48801H16.612V11.1Z" fill="white"/></svg>

<svg class="color-immutable" width="24" height="24" viewBox="0 0 24 24" fill="none" xmlns="http://www.w3.org/2000/svg"><g clip-path="url(#a)"><path d="M0 22.5v-21C0 .675.675 0 1.5 0h21c.825 0 1.5.675 1.5 1.5v21c0 .825-.675 1.5-1.5 1.5h-21C.675 24 0 23.325 0 22.5Z" fill="#2D327D"/><path d="m11.369 12.551-.045.001a.455.455 0 0 0-.16.031c-.397.146-.66.523-.66.945v2.19a.485.485 0 0 1-.483.485H8.759a.74.74 0 0 1-.525-.219L4.18 11.931a.69.69 0 0 0-.974.974l4.31 4.31-.236.236-3.852-3.852-.264.262a.6.6 0 0 0 0 .842l3.447 3.446-.238.236-2.945-2.945-.264.262a.598.598 0 0 0 0 .842l2.525 2.524-.236.237-2.025-2.024-.264.262a.6.6 0 0 0 0 .842L5.781 21h6.21v-7.826a.623.623 0 0 0-.622-.623ZM18.225 4.125H5.775v3.3h12.45v-3.3Z" fill="#fff"/><path d="M3 3v2.25h2.4v-.375H3.375v-1.5h17.25v1.5H18.6v.375H21V3H3ZM5.775 11.1h10.462V9.113h1.988V7.8H5.775v3.3Z" fill="#fff"/><path d="M16.612 11.1h.001l1.612-1.612h-1.613V11.1Z" fill="#fff"/></g><defs><clipPath id="a"><path fill="#fff" d="M0 0h24v24H0z"/></clipPath></defs></svg>
